X:057
T: Farrell's Favorite Minuet
N: O'Farrell's Pocket Companion v.1 (Sky ed. p.43)
M: 3/4
L: 1/8
R: waltz
Q: 125
K: G
dc|B2 Bc/A/ G/B/d/g/| d2 c2 B2|c>d B>c Ad|G>FGAGA|
B>c d/B/c/A/ G/B/d/g/| d2 c2 {Bc}B2|cA BG AF| F2 {EF}G2 :|
(3def|g2 gg gg|f2 ff ff|e2 eg/f/ a/g/f/e/|ed d3B|
c2 cB/c/ A>c|B/G/A/B/ c/d/e/f/ g>d|{f}ed/c/ B>G A2|A2 G2 :|
